!!!COM: Palestrina, Giovanni Perluigi da
!!!OPR: Missa Alma Redemptoris mater
!!!OTL: Agnus I
**kern	**kern	**kern	**kern	**kern	**kern
*Ibass	*Ibass	*Itenor	*Icalto	*Icalto	*Icant
!Bassus 2	!Bassus 1	!Tenor	!Altus 2	!Altus 1	!Cantus
*clefF4	*clefF4	*clefGv2	*clefG2	*clefG2	*clefG2
*k[b-]	*k[b-]	*k[b-]	*k[b-]	*k[b-]	*k[b-]
*F:ion	*F:ion	*F:ion	*F:ion	*F:ion	*F:ion
*M4/2	*M4/2	*M4/2	*M4/2	*M4/2	*M4/2
=1	=1	=1	=1	=1	=1
0r	0r	0r	1c	0r	0r
.	.	.	1e	.	.
=2	=2	=2	=2	=2	=2
0r	0r	0r	0f	0r	1f
.	.	.	.	.	1a
=3	=3	=3	=3	=3	=3
0r	0r	0r	1.g	0r	0b-
.	.	.	2g	.	.
=4	=4	=4	=4	=4	=4
0r	0r	1F	2a	0r	1cc
.	.	.	4cc	.	.
.	.	.	4b-	.	.
.	.	1A	4a	.	2r
.	.	.	4g	.	.
.	.	.	4f	.	2cc
.	.	.	4e	.	.
=5	=5	=5	=5	=5	=5
0r	0r	0B-	4d	0r	2dd
.	.	.	4c	.	.
.	.	.	4d	.	4ff
.	.	.	4e	.	4ee
.	.	.	2f	.	4dd
.	.	.	.	.	4cc
.	.	.	2g	.	4b-
.	.	.	.	.	4a
=6	=6	=6	=6	=6	=6
0r	0r	1c	2e	0r	2g
.	.	.	2.f	.	2a
.	.	1c	.	.	2g
.	.	.	8e	.	.
.	.	.	8d	.	.
.	.	.	2e	.	2g
=7	=7	=7	=7	=7	=7
0r	0r	2d	1a	1r	4f
.	.	.	.	.	4g
.	.	2f	.	.	4a
.	.	.	.	.	4b-
.	.	4e	2g	1c	1cc
.	.	4d	.	.	.
.	.	4c	2g	.	.
.	.	4B-	.	.	.
=8	=8	=8	=8	=8	=8
0r	0r	4A	2a	1e	2cc
.	.	4G	.	.	.
.	.	2A	1cc	.	2cc
.	.	2d	.	1f	2dd
.	.	2d	2b	.	2ff
=9	=9	=9	=9	=9	=9
1C	0r	0c	1cc	1.g	4ee
.	.	.	.	.	4dd
.	.	.	.	.	4ee
.	.	.	.	.	4ff
1E	.	.	2r	.	4gg
.	.	.	.	.	4ff
.	.	.	4cc	2g	4ee
.	.	.	4b-	.	4dd
=10	=10	=10	=10	=10	=10
1F	0r	1c	4a	2a	4cc
.	.	.	4g	.	4b-
.	.	.	4f	1cc	2a
.	.	.	4e	.	.
[1G	.	1r	2.d	.	[1g
.	.	.	.	2b	.
.	.	.	4c	.	.
=11	=11	=11	=11	=11	=11
2G]	1r	1r	1d	2b	1g]
2G	.	.	.	2b	.
2A	1F	2r	1c	1cc	1r
4c	.	2c	.	.	.
4B-	.	.	.	.	.
=12	=12	=12	=12	=12	=12
4A	1A	4c	0f	1cc	2r
4G	.	4B-	.	.	.
4F	.	4A	.	.	2cc
4E	.	4G	.	.	.
4D	1B-	2F	.	1r	4dd
4C	.	.	.	.	4ee
2D	.	2F	.	.	4ff
.	.	.	.	.	4dd
=13	=13	=13	=13	=13	=13
1C	1c	0G	1e	1g	2ee
.	.	.	.	.	1cc
1G	2r	.	1d	2g	.
.	2G	.	.	2g	2b-
=14	=14	=14	=14	=14	=14
2F	2A	1r	2f	2c	1cc
2E	4c	.	2g	2g	.
.	4B-	.	.	.	.
4F	4A	1c	1f	2a	1cc
4G	4G	.	.	.	.
2A	[2F	.	.	4cc	.
.	.	.	.	4b-	.
=15	=15	=15	=15	=15	=15
1D	4F]	1d	1a	4a	2.ff
.	4E	.	.	4g	.
.	4D	.	.	1f	.
.	4C	.	.	.	4ee
1r	2BB-	2f	2b-	.	4dd
.	.	.	.	.	4cc
.	2BB-	2f	[2b-	2d	[2dd
=16	=16	=16	=16	=16	=16
0r	2BB-	2f	4b-]	2d	2dd]
.	.	.	4a	.	.
.	2C	2e	2.g	2e	1cc
.	1G	1d	.	1g	.
.	.	.	4f	.	.
.	.	.	2d	.	2b
=17	=17	=17	=17	=17	=17
2r	0C	1c	2e	2g	1cc
1c	.	.	1g	1e	.
.	.	1r	.	.	2r
2c	.	.	2g	2e	[2cc
=18	=18	=18	=18	=18	=18
2.F	0r	0r	1.a	2.f	2cc]
.	.	.	.	.	2cc
4G	.	.	.	8e	.
.	.	.	.	8d	.
2A	.	.	.	2c	2f
2B-	.	.	2d	[2d	2g
=19	=19	=19	=19	=19	=19
2A	0r	1r	2e	4d]	1a
.	.	.	.	4c	.
2F	.	.	4f	1c	.
.	.	.	4e	.	.
1G	.	2r	4d	.	1g
.	.	.	4c	.	.
.	.	[2g	2d	2B	.
=20	=20	=20	=20	=20	=20
0C	2r	2g]	1.e	2c	1r
.	1c	2g	.	1g	.
.	.	2c	.	.	2r
.	2c	2e	2c	2g	[2cc
=21	=21	=21	=21	=21	=21
2r	2.F	0f	0c	2.a	2cc]
1F	.	.	.	.	2cc
.	4G	.	.	4b-	.
.	2A	.	.	1cc	2f
2F	2A	.	.	.	2cc
=22	=22	=22	=22	=22	=22
2.BB-	1B-	1d	0r	1b-	2.dd
4C	.	.	.	.	4ee
2D	2F	1r	.	2a	2ff
2E	2c	.	.	2g	4ee
.	.	.	.	.	4dd
=23	=23	=23	=23	=23	=23
1F	2.A	1r	2r	1a	2cc
.	.	.	1cc	.	1ff
.	4B-	.	.	.	.
1C	2c	2r	.	1g	.
.	[2c	[2g	2cc	.	4ee
.	.	.	.	.	4dd
=24	=24	=24	=24	=24	=24
0r	2c]	2g]	2c	0r	2ee
.	2B-	2g	2d	.	2.dd
.	1A	2c	2e	.	.
.	.	.	.	.	4cc
.	.	2c	2f	.	[2cc
=25	=25	=25	=25	=25	=25
0r	1G	1d	1g	2r	2cc]
.	.	.	.	1g	2b
.	[1C	4e	2r	.	1cc
.	.	4d	.	.	.
.	.	4e	[2g	2g	.
.	.	4f	.	.	.
=26	=26	=26	=26	=26	=26
0r	1C]	4e	2g]	2.c	2r
.	.	4d	.	.	.
.	.	4c	2g	.	1cc
.	.	4B-	.	4d	.
.	1r	2A	1c	2e	.
.	.	2F	.	[2f	2cc
=27	=27	=27	=27	=27	=27
0r	0r	1B-	1d	4f]	2.f
.	.	.	.	4e	.
.	.	.	.	2d	.
.	.	.	.	.	4g
.	.	2A	2e	2c	2a
.	.	2d	2f	[2f	2b-
=28	=28	=28	=28	=28	=28
1.c	0r	4c	1g	2f]	0cc
.	.	4d	.	.	.
.	.	4e	.	4e	.
.	.	4f	.	4d	.
.	.	1g	2r	1e	.
2c	.	.	[2cc	.	.
=29	=29	=29	=29	=29	=29
2.F	2r	1f	2cc]	2r	2.a
.	1F	.	2cc	1a	.
4G	.	.	.	.	4b-
2A	.	2r	1f	.	[1cc
[2F	2F	[2c	.	2a	.
=30	=30	=30	=30	=30	=30
2F]	1C	2c]	2.g	1g	1cc]
2E	.	2c	.	.	.
.	.	.	4a	.	.
2D	2D	2F	2b-	2f	2r
2C	2E	2G	4cc	4e	2cc
.	.	.	4b-	4d	.
=31	=31	=31	=31	=31	=31
1F	4F	1A	4a	2c	2cc
.	4E	.	4g	.	.
.	4D	.	4f	2.d	2.ff
.	4C	.	4e	.	.
1r	1BB-	2.B-	1d	.	.
.	.	.	.	4e	4ee
.	.	.	.	[2f	2dd
.	.	4A	.	.	.
=32	=32	=32	=32	=32	=32
2r	0C	1G	0g	2f]	1cc
1c	.	.	.	4e	.
.	.	.	.	4d	.
.	.	2G	.	1e	1cc
2c	.	[2c	.	.	.
=33	=33	=33	=33	=33	=33
2.F	2r	2c]	2.cc	[0f	2a
.	1F	2c	.	.	1cc
4G	.	.	4b-	.	.
1A	.	2F	4a	.	.
.	.	.	4g	.	.
.	2F	2F	4f	.	2cc
.	.	.	4e	.	.
=34	=34	=34	=34	=34	=34
1B-	2.BB-	2.f	4d	0f]	1dd
.	.	.	4c	.	.
.	.	.	1B-	.	.
.	4C	4e	.	.	.
2.F	2D	2d	.	.	2ff
.	2F	2c	2A	.	[2ff
4E	.	.	.	.	.
=35	=35	=35	=35	=35	=35
4D	0BB-	0d	2.B-	[0f	4ff]
4C	.	.	.	.	4ee
2BB-	.	.	.	.	4dd
.	.	.	4c	.	4cc
1B-	.	.	4d	.	1b-
.	.	.	4e	.	.
.	.	.	4f	.	.
.	.	.	4g	.	.
=36	=36	=36	=36	=36	=36
0A	0F	0c	0a	0f]	0cc
==	==	==	==	==	==
*-	*-	*-	*-	*-	*-
!!!CDT: 1525/^1526/-1594/2/2
!!!OCY: Italia
!!!AGN: Mass (Paraphrase)
!!!AST: renaissance, vocal
!!!ASW: Antiphon
!!!PWK: Masses, Book 11
!!!RNB: Cadence finals: C
!!!YOR: Le Opere Complete, v. 28, p. 148
!!!YOO: Rome, Italy: Fratelli Scalera
!!!END: 1992//
!!!EED: John Miller
!!!YEC: Copyright 2000, John Miller
!!!YEN: United States of America
!!!YEM: Rights to all derivative electronic formats reserved.
!!!YEM: Refer to licensing agreement for further details.
!!!YEM: This file must be accompanied by the licensing agreement.
!!!YEM: A copy of the licensing agreement may be found at http://www.music-cog.ohio-state.edu/HumdrumDatabases/Palestrina/license.txt
!!!EMD: converted to Humdrum by Bret Aarden
